svg/Pictogram/pictograms-nps-misc-deer_viewing.svg

<svg xmlns="http://www.w3.org/2000/svg" viewBox="0 0 256 256"><path d="m0 0c-.541 0-.981-.44-.981-.981v-7.522c0-.54.44-.979.981-.979h7.521c.542 0 .982.439.982.979v7.522c0 .541-.44.981-.982.981h-7.521" fill="#fff" transform="matrix(25.89783 0 0-25.89783 30.611 5.236)"/><path d="m0 0c-.652 0-1.182-.529-1.182-1.182v-7.521c0-.652.53-1.18 1.182-1.18h7.521c.653 0 1.182.528 1.182 1.18v7.521c0 .653-.529 1.182-1.182 1.182h-7.521" transform="matrix(25.89783 0 0-25.89783 30.611.052)"/><path d="m0 0h.74c.098 0 .178-.08.178-.178 0-.099-.08-.179-.178-.179h-.732c-.047 0-.094-.016-.129-.051-.055-.057-.068-.137-.037-.203.027-.059.064-.119.105-.17l.422.002c.031-.002.067-.001.096-.026l.992-.531c.082-.051.139-.143.139-.246 0-.162-.131-.291-.291-.291h-.647l-.867-2.127-.557-.557v-2.035c0-.205-.168-.373-.375-.373-.207 0-.373.168-.373.373v2.19h-1.502l-.338-.514.831-1.445c.101-.18.037-.409-.143-.51-.18-.102-.408-.037-.51.142l-.851 1.461v.649l-.424-.569v-1.376c0-.207-.168-.374-.375-.374-.205 0-.373.167-.373.374l-.002 1.459.349.554v.66l-.271-.423c-.006-.016-.022-.026-.039-.026-.022 0-.041.018-.041.041v1.471c.014.289.256.529.547.529h3.677l.584.899-.484.482c-.016.014-.025.033-.025.055 0 .043.033.076.074.076l.353-.002c-.087.184-.138.389-.138.605 0 .764.621 1.385 1.386 1.385.1 0 .18-.08.18-.18 0-.097-.08-.181-.18-.181-.523 0-.957-.395-1.015-.903.072.042.154.063.244.063" fill="#fff" transform="matrix(25.89783 0 0-25.89783 182.71 52.45)"/></svg>

<?xml version="1.0" encoding="UTF-8" standalone="no"?>
<!-- Created with Inkscape (http://www.inkscape.org/) -->
<svg
   xmlns:dc="http://purl.org/dc/elements/1.1/"
   xmlns:cc="http://creativecommons.org/ns#"
   xmlns:rdf="http://www.w3.org/1999/02/22-rdf-syntax-ns#"
   xmlns:svg="http://www.w3.org/2000/svg"
   xmlns="http://www.w3.org/2000/svg"
   xmlns:sodipodi="http://sodipodi.sourceforge.net/DTD/sodipodi-0.dtd"
   xmlns:inkscape="http://www.inkscape.org/namespaces/inkscape"
   width="256"
   height="256"
   id="svg5294"
   sodipodi:version="0.32"
   inkscape:version="0.46"
   version="1.0"
   sodipodi:docname="pictograms-nps-deer_viewing-2.svg"
   inkscape:output_extension="org.inkscape.output.svg.inkscape">
  <defs
     id="defs5296">
    <inkscape:perspective
       sodipodi:type="inkscape:persp3d"
       inkscape:vp_x="0 : 526.18109 : 1"
       inkscape:vp_y="0 : 1000 : 0"
       inkscape:vp_z="744.09448 : 526.18109 : 1"
       inkscape:persp3d-origin="372.04724 : 350.78739 : 1"
       id="perspective5302" />
  </defs>
  <sodipodi:namedview
     id="base"
     pagecolor="#ffffff"
     bordercolor="#666666"
     borderopacity="1.0"
     gridtolerance="10000"
     guidetolerance="10"
     objecttolerance="10"
     inkscape:pageopacity="0.0"
     inkscape:pageshadow="2"
     inkscape:zoom="0.98994949"
     inkscape:cx="112.80911"
     inkscape:cy="62.857143"
     inkscape:document-units="px"
     inkscape:current-layer="layer1"
     showgrid="false"
     inkscape:window-width="725"
     inkscape:window-height="674"
     inkscape:window-x="1"
     inkscape:window-y="309" />
  <metadata
     id="metadata5299">
    <rdf:RDF>
      <cc:Work
         rdf:about="">
        <dc:format>image/svg+xml</dc:format>
        <dc:type
           rdf:resource="http://purl.org/dc/dcmitype/StillImage" />
      </cc:Work>
    </rdf:RDF>
  </metadata>
  <g
     inkscape:label="Layer 1"
     inkscape:groupmode="layer"
     id="layer1">
    <g
       id="g4386"
       transform="matrix(25.897825,0,0,-25.897825,30.611229,5.236333)">
      <path
         d="M 0,0 C -0.541,0 -0.981,-0.44 -0.981,-0.981 L -0.981,-8.503 C -0.981,-9.043 -0.541,-9.482 0,-9.482 L 7.521,-9.482 C 8.063,-9.482 8.503,-9.043 8.503,-8.503 L 8.503,-0.981 C 8.503,-0.44 8.063,0 7.521,0 L 0,0 z"
         style="fill:#ffffff;fill-opacity:1;fill-rule:nonzero;stroke:none"
         id="path4388" />
    </g>
    <g
       id="g4390"
       transform="matrix(25.897825,0,0,-25.897825,30.611229,5.179565e-2)">
      <path
         d="M 0,0 C -0.652,0 -1.182,-0.529 -1.182,-1.182 L -1.182,-8.703 C -1.182,-9.355 -0.652,-9.883 0,-9.883 L 7.521,-9.883 C 8.174,-9.883 8.703,-9.355 8.703,-8.703 L 8.703,-1.182 C 8.703,-0.529 8.174,0 7.521,0 L 0,0 z"
         style="fill:#000000;fill-opacity:1;fill-rule:nonzero;stroke:none"
         id="path4392" />
    </g>
    <g
       id="g4394"
       transform="matrix(25.897825,0,0,-25.897825,182.71154,52.453869)">
      <path
         d="M 0,0 L 0.74,0 C 0.838,0 0.918,-0.08 0.918,-0.178 C 0.918,-0.277 0.838,-0.357 0.74,-0.357 L 0.008,-0.357 C -0.039,-0.357 -0.086,-0.373 -0.121,-0.408 C -0.176,-0.465 -0.189,-0.545 -0.158,-0.611 C -0.131,-0.67 -0.094,-0.73 -0.053,-0.781 L 0.369,-0.779 C 0.4,-0.781 0.436,-0.789 0.465,-0.805 L 1.457,-1.336 C 1.539,-1.387 1.596,-1.479 1.596,-1.582 C 1.596,-1.744 1.465,-1.873 1.305,-1.873 L 0.658,-1.873 L -0.209,-4 L -0.766,-4.557 L -0.766,-6.592 C -0.766,-6.797 -0.934,-6.965 -1.141,-6.965 C -1.348,-6.965 -1.514,-6.797 -1.514,-6.592 L -1.514,-4.402 L -3.016,-4.402 L -3.354,-4.916 L -2.523,-6.361 C -2.422,-6.541 -2.486,-6.77 -2.666,-6.871 C -2.846,-6.973 -3.074,-6.908 -3.176,-6.729 L -4.027,-5.268 L -4.027,-4.619 L -4.451,-5.188 L -4.451,-6.564 C -4.451,-6.771 -4.619,-6.938 -4.826,-6.938 C -5.031,-6.938 -5.199,-6.771 -5.199,-6.564 L -5.201,-5.105 L -4.852,-4.551 L -4.852,-3.891 L -5.123,-4.314 C -5.129,-4.33 -5.145,-4.34 -5.162,-4.34 C -5.184,-4.34 -5.203,-4.322 -5.203,-4.299 L -5.203,-2.828 C -5.189,-2.539 -4.947,-2.299 -4.656,-2.299 L -0.979,-2.299 L -0.395,-1.4 L -0.879,-0.918 C -0.895,-0.904 -0.904,-0.885 -0.904,-0.863 C -0.904,-0.82 -0.871,-0.787 -0.83,-0.787 L -0.477,-0.789 C -0.564,-0.605 -0.615,-0.4 -0.615,-0.184 C -0.615,0.58 0.006,1.201 0.771,1.201 C 0.871,1.201 0.951,1.121 0.951,1.021 C 0.951,0.924 0.871,0.84 0.771,0.84 C 0.248,0.84 -0.186,0.445 -0.244,-0.063 C -0.172,-0.021 -0.09,0 0,0"
         style="fill:#ffffff;fill-opacity:1;fill-rule:nonzero;stroke:none"
         id="path4396" />
    </g>
  </g>
</svg>
